X:172
T: ICH KOMME VOM GEBIRGE HER
N: B0661
O: Europa, Mitteleuropa, Deutschland; Frankreich, Elsass,Weissenburg
R: Moral - Lied, Einsamkeit
M: 3/4
L: 1/16
K: Bb
F2B2F2 | D6D2F3E | E6
A2c2B2 | A6E2G2F2 | D4z2
F2B2F2 | d6B2B2G2 | G6
B2A2G2 | F6F2e2A2 | B4z2

